icons/drop.svg

<svg width="24" height="24" viewBox="0 0 24 24" fill="none" xmlns="http://www.w3.org/2000/svg">
<path d="M12 3L17 8.326C17.9751 9.39554 18.6258 10.7205 18.876 12.146C19.1343 13.5863 18.9879 15.07 18.453 16.432C17.9342 17.7663 17.0381 18.9207 15.874 19.754C14.7431 20.561 13.3893 20.9964 12 21C10.6107 20.9964 9.25688 20.561 8.126 19.754C6.96156 18.9208 6.06504 17.7664 5.546 16.432C5.01128 15.0696 4.86519 13.5855 5.124 12.145C5.37426 10.7195 6.02492 9.39457 7 8.325L12 3Z" stroke="white" stroke-width="2" stroke-linecap="round" stroke-linejoin="round"/>
</svg>

<svg
  width="24"
  height="24"
  viewBox="0 0 24 24"
  xmlns="http://www.w3.org/2000/svg"
  fill="none"
  stroke="currentColor"
  stroke-width="2"
  stroke-linecap="round"
  stroke-linejoin="round"
>
  <path d="M12 3l5 5.326a7.627 7.627 0 0 1 1.876 3.82 7.907 7.907 0 0 1-.423 4.286 7.37 7.37 0 0 1-2.579 3.322A6.7 6.7 0 0 1 12 21a6.7 6.7 0 0 1-3.874-1.246 7.37 7.37 0 0 1-2.58-3.322 7.907 7.907 0 0 1-.422-4.287c.25-1.425.9-2.75 1.876-3.82L12 3z" />
</svg>
